X:1
T:Chas. H.  Gabriel
T:Jennie Ree
T:Little Star
%%score { ( 1 3 ) | ( 2 4 5 ) }
L:1/8
M:4/4
K:G
V:1 treble 
V:3 treble 
V:2 bass 
V:4 bass 
V:5 bass 
V:1
{/x} D2 | D2 E2 G2 FG | A2 E2 A2 c2 | B3 A G2 A2 | B6 D2 | D2 E2 G2 FG | A2 E2 A2 c2 | B3 A G2 F2 | %8
w: How|wise you look, lit\- tle|star, a\- way Up|yon\- der in the|sky; How|man\- y years have you|twink\- led there A\-|bove the world so|
w: I|of\- ten won\- der if|you were there When|Christ lay in the|stall, And|if you saw, from your|diz\- zy height, The|in\- fant Lord of|
w: If|you had lis\- tened... *|* * * Could|you have heard the|song That|float\- ed down on the|mid\- night air From|that an\- ge\- lic|
w: Oh,|yes, a wise lit\- tle|star are you, Yet,|not a word to|say; You|watch all night o’er the|drow\- sy earth, And|sleep all thro' the|
 G6 z2 |"^Chorus" G3 E G2 E2 | G2 E2 G2 G2 | B3 G B2 G2 | B2 G2 B4 | d3 c E2 F2 | c2 B2 D2 G2 | %15
w: high?|"Lit\- tle star, a\-|way up yon\- der,|Tell me, were you|shin\- ing then?|Did you hear the|an\- gels sing\- ing,|
w: all.|||||||
w: throng?|||||||
w: day.|||||||
 B2 A2 B2 A2 | G6 |] %17
w: Peace! Good\- will to|men?"|
w: ||
w: ||
w: ||
V:2
 z2 | G,4 D,4 | E,2 A,2 C2 z2 | z8 | z8 | G,,8 | C,8 | D,8 | G,,6 z2 | C,8 | C,8 | G,,8 | G,,8 | %13
 D,8 | z4 G,,4 | A,,4 D,4 | G,,6 |] %17
V:3
 x2 | B,8 | C4 E4 | D3 C B,2 C2 | D6 D2 | B,8 | C4 E4 | D3 C B,2 C2 | B,6 z2 | E3 C E2 C2 | %10
 E2 C2 E2 _E2 | D3 B, D2 B,2 | D2 B,2 D4 | F3 E C2 D2 | E2 D2 B,2 B,2 | ^C2 C2 =C2 C2 | B,6 |] %17
V:4
 x2 | G,,8 | C,8 | D,8 | x8 | x8 | x8 | x8 | x8 | x8 | x8 | x8 | x8 | x8 | x8 | x8 | x6 |] %17
V:5
 x2 | x8 | x8 | x8 | G,2 D,2 G,,2 z2 | G,4 D,4 | E,2 A,2 C2 z2 | x8 | D,6 z2 | G,8 | G,8 | G,8 | %12
 G,8 | A,4 F,2 A,2 | G,4 G,4 | G,4 F,4 | [D,G,]6 |] %17

